X: 122091
T: Lough Gill
C: Joe Liddy
Z: BB
S: "The Leitrim Fiddler" (Dublin 1981)
N: Uses dotted rhythm
L: 1/8
M: 4/4
R: hornpipe
Q: 1/4 = 160
K: G
dc | BDGB dGBd | gb (3agf gedc | BDGB dGBd | eBcB Adcd |
BDGB dGBd | gb (3agf gedc | BDed cADF | A2 G2 G2 :|
Bc | dGBd GABd | eAcB Aceg | fdfa gfga | (3bag (3age d2 Bc |
dGBd GABd | eAcB Aceg | fdfa gbaf | gd (3edB G2 :|
%%%%%%%%%%%%%%%%
